src/assets/sprites/icon-categories-active.svg

<svg width="16px" height="16px" viewBox="0 0 16 16" xmlns="http://www.w3.org/2000/svg" xmlns:xlink="http://www.w3.org/1999/xlink">
    <g stroke="none" stroke-width="1" fill="none" fill-rule="evenodd">
        <g id="icons/16/categories" fill="#297EF2">
            <path d="M3.24317636,6.034 L0.671176359,4.842 C0.473176359,4.743 0.375176359,4.643 0.275176359,4.445 C0.0781763594,3.949 0.275176359,3.551 0.671176359,3.352 L7.79217636,0.075 C7.99017636,-0.025 8.18717636,-0.025 8.38617636,0.075 L15.5061764,3.352 C15.8031764,3.451 16.0001764,3.75 16.0001764,4.048 C16.0001764,4.346 15.8031764,4.643 15.5061764,4.743 L12.8361764,6.034 L12.2421764,6.332 L8.38617636,8.219 C8.15217636,8.36 7.89017636,8.325 7.69317636,8.219 C7.49517636,8.114 3.83617636,6.332 3.83617636,6.332 L3.24317636,6.034 Z M15.2724764,10.8411 C16.0524764,11.2401 15.9484764,12.1861 15.1874764,12.5971 L8.42147636,15.9001 C8.14947636,16.0331 7.83047636,16.0331 7.55747636,15.9001 L0.572476359,12.4901 C0.375476359,12.3911 0.275476359,12.2911 0.176476359,12.0931 C-0.0205236406,11.5961 0.176476359,11.1991 0.572476359,11.0001 L1.46247636,10.6031 L3.93447636,11.7951 L7.56147636,13.5251 C7.83347636,13.6541 8.14847636,13.6531 8.41847636,13.5201 L12.1434764,11.6951 L14.5164764,10.5041 L15.2724764,10.8411 Z M15.8026764,7.6234 C15.9996764,8.0204 15.8026764,8.5174 15.2086764,8.8154 L12.9346764,9.9074 L12.3406764,10.2064 L8.28267636,12.2434 C8.00467636,12.3834 7.67767636,12.3834 7.39967636,12.2434 L3.34167636,10.2064 L2.74767636,9.9074 L0.473676359,8.8154 C0.275676359,8.7154 0.176676359,8.6164 0.0776763594,8.4174 C-0.120323641,7.9214 0.0776763594,7.5234 0.473676359,7.3254 L1.75867636,6.7294 L3.93467636,7.7224 L7.56067636,9.4524 C7.83267636,9.5814 8.14867636,9.5804 8.41867636,9.4474 L12.5386764,7.4244 L14.1206764,6.6304 L15.4066764,7.2264 C15.6046764,7.3254 15.7036764,7.4244 15.8026764,7.6234 Z" id="Combined-Shape"></path>
        </g>
    </g>
</svg>

<svg viewBox="0 0 16 16" xmlns="http://www.w3.org/2000/svg"><path d="M3.243 6.034L.671 4.842a.779.779 0 0 1-.396-.397c-.197-.496 0-.894.396-1.093L7.792.075c.198-.1.395-.1.594 0l7.12 3.277a.746.746 0 0 1 .494.696.746.746 0 0 1-.494.695l-2.67 1.291-.594.298-3.856 1.887a.694.694 0 0 1-.693 0c-.198-.105-3.857-1.887-3.857-1.887l-.593-.298zm12.03 4.807c.78.4.675 1.345-.086 1.756L8.421 15.9a.985.985 0 0 1-.864 0L.572 12.49a.779.779 0 0 1-.396-.397c-.197-.497 0-.894.396-1.093l.89-.397 2.472 1.192 3.627 1.73a.984.984 0 0 0 .857-.005l3.725-1.825 2.373-1.19.756.336zm.53-3.218c.197.397 0 .894-.594 1.192l-2.274 1.092-.594.3-4.058 2.036a.98.98 0 0 1-.883 0l-4.058-2.037-.594-.299L.474 8.815a.777.777 0 0 1-.396-.398c-.198-.496 0-.894.396-1.092l1.285-.596 2.176.993 3.626 1.73a.986.986 0 0 0 .858-.005l4.12-2.023 1.582-.794 1.286.596a.771.771 0 0 1 .396.397z" fill="#297EF2" fill-rule="evenodd"/></svg>
